X:1
T:Title
%%score { ( 1 3 ) | ( 2 4 ) }
L:1/8
Q:1/4=100
M:4/4
K:Bb
V:1 treble nm="Grand Piano"
V:3 treble 
V:2 bass 
V:4 bass 
V:1
 B2 B2 [FB]2 B2 | dcBG F4 | G2 [EA]2 [DB]2 [Ec]2 | [=Ed][Ec][EB][Ed] c4 | d2 d2 c2 c2 | %5
w: L.~E.~Jones * * *|||||
 BBBB [D^FA]4 | [B,EG]2 [B,GB]2 [B,F]2 [B,DB]2 | dccA [DB]4 | [DF]4 [DF]4 | [DB]4 z4 | %10
w: |||||
 [EG]4 [=EG]4 | z2 [EB]2 [FA]2 z2 | [FB]4 [DF]4 | [EG]4 [B,G]4 | d3 c B2 A2 | %15
w: |||||
 B-[DB-][EB-][EB-] [DB]2 z2 |] %16
w: |
V:2
 [B,D]2 [F,B,D]2 [D,B,]2 [F,B,D]2 | [B,F][B,E][B,D][B,E] [B,D]4 | %2
 [E,B,E]2 [C,F,]2 [B,,F,]2 [F,A,]2 | [C,B,][C,A,][C,G,][C,B,][K:treble] [F,A,F]4 | %4
 [B,F]2 [B,F]2 [F,A,F]2 [F,A,F]2 | [G,B,D][G,B,D][G,B,D][G,B,D] D,4 | E,2 E,2 D,2 B,,2 | %7
 [F,B,F][F,A,E][F,A,E][F,E] [B,,F,]4 | [B,,B,]2 D,2 F,2 B,2 | B,,B,,D,F, B,4 | %10
 E,E,E,E, C,C,C,[C,C] | [C,C][C,C][C,C]C, F,2 E,2 | D,2 F,2 B,2 F,2 | E,E,E,E, E,4 | %14
 [F,B,F]3 [F,A,E] [F,D]2 [F,E]2 | F,F,G,G, F,2 z2 |] %16
V:3
 x8 | x8 | x8 | x8 | x8 | x8 | x8 | x8 | z2 B,2 B,2 z2 | B,B,B,B, [DB]4 | B,B,B,[B,EG] CCC[=EG] | %11
 [Ec]2 z C C2- [CFA]2 | D2 D2 z2 B,2 | B,B,B,B, B2 e2 | x8 | .D2 z2 z4 |] %16
V:4
 x8 | x8 | x8 | x4[K:treble] x4 | x8 | x8 | x8 | x8 | x8 | x8 | x8 | x8 | x8 | x8 | x8 | B,,6 z2 |] %16

